symbolic/24x24/apps/hypnotix.svg

<svg xmlns="http://www.w3.org/2000/svg" width="24" height="24" version="1.1">
 <rect style="opacity:0.2" width="20" height="20" x="2" y="2.5" rx="4" ry="4"/>
 <path style="fill:#20a9f0" d="M 5.949264,4.1309073 C 5.083384,4.8926703 3.8104661,2.4831891 3.0817797,3.2589947 2.4103,3.9738945 2,4.9372696 2,6 v 4.631094 L 3.369869,13.497671 2,15.653947 V 18 c 0,0.925875 0.3114299,1.776337 0.8356788,2.452774 0.7304942,0.942555 2.7797032,0.25295 4.0268312,0.583244 L 10.502329,22 h 5.175061 l 2.170402,-1.166926 c 1.015973,-0.546241 2.342169,0.683538 3.070878,-0.09255 C 21.589883,20.025675 22,19.062493 22,18 V 13.423 L 21.01065,10.732565 22,8.3226105 V 6 C 22,5.083671 21.694959,4.2412081 21.180469,3.568204 20.450744,2.6136519 17.281488,3.2679286 16.046668,2.8625101 L 13.419643,2 H 8.3714215 Z"/>
 <path style="opacity:0.2" d="M 6,2.5 C 4.8321042,2.5 3.7876134,2.9988623 3.0576172,3.7919922 3.4125415,5.7475325 6.2202885,10.42458 8.643211,11.127983 c -0.508813,0.943932 0.1390265,0.270808 0.138376,1.343132 0.0019,0.306771 -0.671379,1.57208 -0.625759,1.875446 C 7.393404,14.679671 2.7949494,12.022194 2,11.029297 v 5.221679 c 1.4661408,0.10164 5.4832125,-0.163725 6.5026185,-1.119696 5.1085355,-0.278165 1.160881,0.965554 2.4449245,1.481348 0.249326,0.402695 -0.224101,1.079492 -1.1403835,1.763332 C 8.062386,19.678119 4.8337954,21.046468 2.788086,20.881836 3.5156789,21.863084 4.6792104,22.5 6,22.5 h 4.585938 c 0.46634,-0.903988 2.063984,-3.463716 1.751847,-5.517482 1.382996,-0.0408 2.254279,-0.465993 3.343503,-1.319182 0.158433,0.236908 -0.729457,0.802919 -0.132743,0.848291 0.749037,0.05695 0.572945,4.234293 0.0286,5.988373 H 18 c 1.167896,0 2.212386,-0.498863 2.942383,-1.291992 C 20.680337,19.00479 17.086148,13.913935 15.901616,14.6966 16.410423,13.752668 14.999349,13.572331 15,12.500001 14.99745,12.193236 16.791774,11.260018 16.746155,10.956652 17.771736,11.087938 20.601335,12.55985 22,13.970703 V 8.754883 C 20.313297,8.523342 16.230405,9.1421045 15.454598,9.729362 14.726887,8.5533165 14.569881,8.6512375 13.28657,8.135705 13.652184,7.873988 13.429283,7.1510325 13.92244,6.8063155 15.893054,5.428855 18.452072,4.0204177 21.211914,4.118164 20.484321,3.1369156 19.320789,2.5 18,2.5 H 13.416992 C 12.608212,3.5597522 11.256623,7.0661345 11.292934,8.379582 9.909715,8.420257 9.782818,7.491839 8.6934215,8.345157 7.1583285,8.029153 8.4228515,2.5 8.4228515,2.5 Z"/>
 <path style="fill:#ffffff" d="M 6,2 C 4.8321042,2 3.7876134,2.4988623 3.0576172,3.2919922 3.4125415,5.2475325 6.2202885,9.92458 8.643211,10.627983 c -0.508813,0.943932 0.1390265,0.270808 0.138376,1.343132 0.0019,0.306771 -0.671379,1.57208 -0.625759,1.875446 C 7.393404,14.179671 2.7949494,11.522194 2,10.529297 v 5.22168 c 1.4661408,0.101639 5.4832125,-0.163726 6.5026185,-1.119697 5.1085355,-0.278165 1.160881,0.965555 2.4449245,1.481348 0.249326,0.402695 -0.224101,1.079492 -1.1403835,1.763332 C 8.062386,19.178119 4.8337954,20.546468 2.788086,20.381836 3.5156789,21.363084 4.6792104,22 6,22 h 4.585938 c 0.46634,-0.903988 2.063984,-3.463716 1.751847,-5.517482 1.382996,-0.0408 2.254279,-0.465993 3.343503,-1.319182 0.158433,0.236908 -0.729457,0.802919 -0.132743,0.848291 0.749037,0.05695 0.572945,4.234293 0.0286,5.988373 H 18 c 1.167896,0 2.212386,-0.498863 2.942383,-1.291992 C 20.680337,18.50479 17.086148,13.413935 15.901616,14.1966 16.410423,13.252668 14.999349,13.072331 15,12.000001 14.99745,11.693236 16.791774,10.760018 16.746155,10.456652 17.771736,10.587938 20.601335,12.05985 22,13.470703 V 10.808669 8.254883 C 20.313297,8.023342 16.230405,8.6421045 15.454598,9.229362 14.726887,8.0533165 14.569881,8.1512375 13.28657,7.635705 13.652184,7.373988 13.429283,6.6510325 13.92244,6.3063155 15.893054,4.9288551 18.452072,3.5204177 21.211914,3.618164 20.484321,2.6369156 19.320789,2 18,2 H 13.416992 C 12.608212,3.0597522 11.256623,6.5661345 11.292934,7.879582 9.909715,7.920257 9.782818,6.991839 8.6934215,7.845157 7.1583285,7.529153 8.4228515,2 8.4228515,2 Z"/>
 <path style="opacity:0.2;fill:#ffffff" d="M 6,2 C 3.784,2 2,3.784 2,6 v 0.5 c 0,-2.216 1.784,-4 4,-4 h 12 c 2.216,0 4,1.784 4,4 V 6 C 22,3.784 20.216,2 18,2 Z"/>
 <circle style="opacity:0.2" cx="12" cy="12.5" r="6"/>
 <circle style="fill:#ffffff" cx="12" cy="12.038" r="6"/>
 <path style="fill:#20a9f0" d="m 11,14.25 v -4.5 l 4,2.250001 z"/>
</svg>

<svg xmlns="http://www.w3.org/2000/svg" width="24" height="24"><rect style="opacity:.2" width="20" height="20" x="2" y="2.5" rx="4" ry="4"/><path style="fill:#20a9f0" d="M5.95 4.13c-.867.763-2.14-1.647-2.868-.871A3.987 3.987 0 0 0 2 6v4.631l1.37 2.867L2 15.654V18c0 .926.311 1.776.836 2.453.73.942 2.78.253 4.027.583l3.64.964h5.174l2.17-1.167c1.017-.546 2.343.684 3.072-.092A3.987 3.987 0 0 0 22 18v-4.577l-.99-2.69.99-2.41V6c0-.916-.305-1.759-.82-2.432-.73-.954-3.899-.3-5.133-.705L13.42 2H8.37z"/><path style="opacity:.2" d="M6 2.5a3.983 3.983 0 0 0-2.942 1.292c.355 1.956 3.162 6.633 5.585 7.336-.509.944.14.27.139 1.343.001.307-.672 1.572-.626 1.876-.763.333-5.361-2.325-6.156-3.318v5.222c1.466.102 5.483-.164 6.503-1.12 5.108-.278 1.16.966 2.445 1.482.249.402-.225 1.08-1.14 1.763-1.746 1.302-4.974 2.67-7.02 2.506A3.985 3.985 0 0 0 6 22.5h4.586c.466-.904 2.064-3.464 1.752-5.517 1.383-.041 2.254-.466 3.343-1.32.159.237-.73.803-.132.849.749.057.572 4.234.028 5.988H18a3.983 3.983 0 0 0 2.942-1.292c-.262-2.203-3.856-7.294-5.04-6.511.508-.944-.903-1.125-.902-2.197-.003-.307 1.792-1.24 1.746-1.543 1.026.13 3.855 1.603 5.254 3.014V8.755c-1.687-.232-5.77.387-6.545.974-.728-1.176-.885-1.078-2.168-1.593.365-.262.142-.985.635-1.33 1.971-1.377 4.53-2.786 7.29-2.688A3.985 3.985 0 0 0 18 2.5h-4.583c-.809 1.06-2.16 4.566-2.124 5.88-1.383.04-1.51-.888-2.6-.035-1.535-.316-.27-5.845-.27-5.845z"/><path style="fill:#fff" d="M6 2a3.983 3.983 0 0 0-2.942 1.292c.355 1.956 3.162 6.633 5.585 7.336-.509.944.14.27.139 1.343.001.307-.672 1.572-.626 1.876-.763.333-5.361-2.325-6.156-3.318v5.222c1.466.102 5.483-.164 6.503-1.12 5.108-.278 1.16.966 2.445 1.482.249.402-.225 1.08-1.14 1.763-1.746 1.302-4.974 2.67-7.02 2.506A3.985 3.985 0 0 0 6 22h4.586c.466-.904 2.064-3.464 1.752-5.517 1.383-.041 2.254-.466 3.343-1.32.159.237-.73.803-.132.849.749.057.572 4.234.028 5.988H18a3.983 3.983 0 0 0 2.942-1.292c-.262-2.203-3.856-7.294-5.04-6.511.508-.944-.903-1.125-.902-2.197-.003-.307 1.792-1.24 1.746-1.543 1.026.13 3.855 1.603 5.254 3.014V8.255c-1.687-.232-5.77.387-6.545.974-.728-1.176-.885-1.078-2.168-1.593.365-.262.142-.985.635-1.33 1.971-1.377 4.53-2.786 7.29-2.688A3.985 3.985 0 0 0 18 2h-4.583c-.809 1.06-2.16 4.566-2.124 5.88-1.383.04-1.51-.888-2.6-.035C7.158 7.53 8.423 2 8.423 2z"/><path style="opacity:.2;fill:#fff" d="M6 2C3.784 2 2 3.784 2 6v.5c0-2.216 1.784-4 4-4h12c2.216 0 4 1.784 4 4V6c0-2.216-1.784-4-4-4z"/><circle style="opacity:.2" cx="12" cy="12.5" r="6"/><circle style="fill:#fff" cx="12" cy="12.038" r="6"/><path style="fill:#20a9f0" d="M11 14.25v-4.5L15 12z"/></svg>
